assets/icons/icon_achievment_ldpi.svg

<svg width="30" height="30" viewBox="0 0 30 30" fill="none"
    xmlns="http://www.w3.org/2000/svg">
    
    <path d="M21.1986 8.73018C22.7813 5.16465 23.2588 4.13712 25.0709 0H22.5342L19.0877 7.75465C19.8257 8.01423 20.5319 8.34176 21.1986 8.73018Z" fill="#6366F1"/>
    <path d="M15 7.05882C15.8086 7.05882 16.5991 7.13735 17.3646 7.28647L20.6031 0H18.0122C17.1058 2.05224 15.9286 4.71735 14.996 6.829L11.973 0H9.39697L12.6354 7.28647C13.401 7.13735 14.1914 7.05882 15 7.05882Z" fill="#818CF8"/>
    <path d="M10.9123 7.75465L7.46577 0H4.90771L8.7973 8.73265C9.46519 8.34318 10.1728 8.01482 10.9123 7.75465Z" fill="#3730A3"/>
    <path d="M15 8.82349C9.16169 8.82349 4.4118 13.5734 4.4118 19.4117C4.4118 25.2501 9.16169 30 15 30C20.8384 30 25.5883 25.2501 25.5883 19.4117C25.5883 13.5734 20.8384 8.82349 15 8.82349ZM11.6059 24.256L12.2541 20.4766L9.50816 17.8L13.303 17.2485L15 13.8099L16.6972 17.2485L20.4919 17.8L17.746 20.4766L18.3942 24.256L15 22.4716L11.6059 24.256ZM15 20.4779L16.0505 21.0301L15.8499 19.8604L16.6996 19.0321L15.5253 18.8615L15 17.7973L14.4749 18.8615L13.3005 19.0321L14.1503 19.8604L13.9496 21.0301L15 20.4779Z" fill="#6366F1"/>
</svg>

<svg fill="none" xmlns="http://www.w3.org/2000/svg" viewBox="0 0 30 30"><path d="M21.199 8.73C22.78 5.165 23.259 4.137 25.07 0h-2.537l-3.446 7.755a12.3 12.3 0 0 1 2.11.975" fill="#6366F1"/><path d="M15 7.059c.809 0 1.6.078 2.365.227L20.603 0h-2.59l-3.017 6.829L11.973 0H9.397l3.238 7.286q1.15-.225 2.365-.227" fill="#818CF8"/><path d="M10.912 7.755 7.466 0H4.908l3.89 8.733a12 12 0 0 1 2.114-.978" fill="#3730A3"/><path d="M15 8.823c-5.838 0-10.588 4.75-10.588 10.589C4.412 25.25 9.162 30 15 30s10.588-4.75 10.588-10.588c0-5.839-4.75-10.589-10.588-10.589m-3.394 15.433.648-3.78L9.508 17.8l3.795-.552L15 13.81l1.697 3.438 3.795.552-2.746 2.677.648 3.779L15 22.472zM15 20.478l1.05.552-.2-1.17.85-.828-1.175-.17L15 17.797l-.525 1.064-1.174.171.85.828-.201 1.17z" fill="#6366F1"/></svg>
